icons/op-custom-fields-24.svg

<svg width="24" height="24" viewBox="0 0 24 24" fill="none" xmlns="http://www.w3.org/2000/svg">
<path d="M6.1875 13.007C6.1875 12.7552 6.3125 12.5594 6.5 12.4196C6.71875 12.3077 7.03125 12.2238 7.46875 12.2238L7.9375 12.1958V12.0559C7.9375 11.9161 7.90625 11.8042 7.8125 11.7203C7.75 11.6364 7.625 11.6084 7.4375 11.6084C7.3125 11.6084 7.15625 11.6084 7.03125 11.6643C6.90625 11.6923 6.78125 11.7483 6.65625 11.7762L6.46875 11.4126C6.625 11.3287 6.78125 11.3007 6.96875 11.2448C7.15625 11.2168 7.3125 11.1888 7.46875 11.1888C7.8125 11.1888 8.09375 11.2727 8.28125 11.4126C8.4375 11.5524 8.53125 11.7483 8.53125 12.0559V13.7343H8.125L8 13.3706H7.96875C7.84375 13.5385 7.71875 13.6224 7.5625 13.6783C7.4375 13.7343 7.25 13.7622 7.0625 13.7622C6.78125 13.7622 6.5625 13.7063 6.40625 13.5664C6.28125 13.4266 6.1875 13.2587 6.1875 13.007ZM6.78125 13.007C6.78125 13.1189 6.84375 13.2028 6.90625 13.2867C6.96875 13.3427 7.09375 13.3706 7.25 13.3706C7.4375 13.3706 7.625 13.3147 7.75 13.2028C7.875 13.0909 7.9375 12.951 7.9375 12.7552V12.5315L7.59375 12.5594C7.3125 12.5594 7.125 12.6154 6.96875 12.6713C6.84375 12.7552 6.78125 12.8671 6.78125 13.007ZM9.375 13.7343V10.2378H9.96875V11.049C9.96875 11.1329 9.96875 11.2168 9.9375 11.3287V11.5804H9.96875C10.1562 11.3287 10.4062 11.1888 10.7812 11.1888C11.125 11.1888 11.4062 11.3007 11.5938 11.5245C11.7812 11.7483 11.875 12.0839 11.875 12.4755C11.875 12.8951 11.7812 13.2028 11.5938 13.4266C11.4062 13.6503 11.125 13.7622 10.7812 13.7622C10.4375 13.7622 10.1562 13.6503 9.96875 13.4266H9.90625L9.8125 13.7343H9.375ZM9.96875 12.4755C9.96875 12.7832 10 13.007 10.125 13.1469C10.2188 13.2587 10.4062 13.3427 10.6562 13.3427C10.8438 13.3427 11 13.2587 11.125 13.1189C11.2188 12.979 11.2812 12.7552 11.2812 12.4755C11.2812 11.9161 11.0625 11.6364 10.625 11.6364C10.4062 11.6364 10.2188 11.6923 10.125 11.8042C10.0312 11.9441 9.96875 12.1399 9.96875 12.4476V12.4755ZM12.4062 12.5035C12.4062 12.0839 12.5312 11.7483 12.75 11.5245C12.9688 11.3007 13.2812 11.1888 13.7188 11.1888C14.0312 11.1888 14.2812 11.2448 14.5312 11.3566L14.3438 11.7762C14.0938 11.6923 13.875 11.6364 13.7188 11.6364C13.25 11.6364 13 11.9161 13 12.5035C13 12.7832 13.0625 12.979 13.1875 13.1189C13.3125 13.2587 13.4688 13.3147 13.7188 13.3147C13.9688 13.3147 14.2188 13.2587 14.4375 13.1469V13.6224C14.3438 13.6783 14.2188 13.7063 14.125 13.7343C14 13.7622 13.8438 13.7622 13.6875 13.7622C13.25 13.7622 12.9375 13.6503 12.7188 13.4545C12.5 13.2308 12.4062 12.8951 12.4062 12.5035ZM20 16H4V8H20V16ZM5.03125 15.0769H18.9688V8.92308H5.03125V15.0769Z" fill="black"/>
</svg>

<svg xmlns="http://www.w3.org/2000/svg" width="24" height="24" viewBox="0 0 24 24"><path d="M6.188 13.007c0-.252.124-.448.312-.587.219-.112.531-.196.969-.196l.469-.028v-.14c0-.14-.032-.252-.126-.336-.062-.084-.187-.112-.374-.112-.126 0-.282 0-.407.056-.125.028-.25.084-.375.112l-.187-.363c.156-.084.312-.112.5-.168.187-.028.343-.056.5-.056.343 0 .625.084.812.224.157.139.25.335.25.643v1.678h-.406L8 13.371h-.031a.815.815 0 0 1-.407.307 1.306 1.306 0 0 1-.5.084c-.281 0-.5-.056-.656-.196a.787.787 0 0 1-.218-.559Zm.593 0c0 .112.063.196.125.28.063.056.188.084.344.084a.758.758 0 0 0 .5-.168.56.56 0 0 0 .188-.448v-.224l-.344.028a1.72 1.72 0 0 0-.625.112.388.388 0 0 0-.188.336Zm2.594.727v-3.496h.594v.811c0 .084 0 .168-.031.28v.251h.031c.187-.251.437-.391.812-.391.344 0 .625.112.813.335.187.224.281.56.281.952 0 .419-.094.727-.281.951-.188.223-.469.335-.813.335-.343 0-.625-.112-.812-.335h-.063l-.094.307h-.437Zm.594-1.258c0 .307.031.531.156.671.094.112.281.196.531.196a.615.615 0 0 0 .469-.224c.094-.14.156-.364.156-.643 0-.56-.219-.84-.656-.84-.219 0-.406.056-.5.168-.094.14-.156.336-.156.644v.028Zm2.437.028c0-.42.125-.756.344-.98.219-.223.531-.335.969-.335.312 0 .562.056.812.168l-.187.419c-.25-.084-.469-.14-.625-.14-.469 0-.719.28-.719.868 0 .279.062.475.188.615.124.14.281.196.531.196s.5-.056.719-.168v.475c-.094.056-.219.084-.313.112-.125.028-.281.028-.437.028-.438 0-.75-.112-.969-.308-.219-.223-.313-.559-.313-.95ZM20 16H4V8h16v8Zm-14.969-.923h13.938V8.923H5.031v6.154Z"/></svg>
